X:72
T:Mary Murray's Mazurka
M:3/4
L:1/8
C:© Paul Gitlitz 1999
R:Mazurka
B:Giblitz Fancy
N: Written for Mary's 60th. Birthday.
D:"To Have and To Hold" available @ www.glitchless.net
K:A
AF|"A"(EF) ABc2|"F#m"(cd) (Bc)A2|"Bm"Bc (de)f2|"D"dc da"E"g2|!
"A"(EF) ABc2|"F#m"(cd) (Bc) Aa|"E7"(gf) ed Bc|"A"A4:|!
ag|"D"f2g2a2|"A"e4dc|"Bm"dc df ed|"C#m"c6|!
"D"dc Bcd2|"A"cB ABc2|1"Bm"BA Bc dB|"E"[G4B4]:|2"E"EG Bd cB|"A"A4|]
